images/icons/dot-arrow-down.svg

<svg fill="none" height="24" viewBox="0 0 24 24" width="24" xmlns="http://www.w3.org/2000/svg" xmlns:xlink="http://www.w3.org/1999/xlink"><mask id="a" height="24" maskUnits="userSpaceOnUse" width="24" x="0" y="0"><path d="m0 0h24v24h-24z" fill="#d9d9d9"/></mask><g mask="url(#a)"><path d="m12 22-7-7 1.4-1.425 4.6 4.6v-7.175h2v7.175l4.6-4.575 1.4 1.4zm-1-13v-3h2v3zm0-5v-2h2v2z" fill="#42404f"/></g></svg>

<svg width="24" height="24" viewBox="0 0 24 24" fill="none" xmlns="http://www.w3.org/2000/svg">
<mask id="mask0_272_156" style="mask-type:alpha" maskUnits="userSpaceOnUse" x="0" y="0" width="24" height="24">
<rect width="24" height="24" fill="#D9D9D9"/>
</mask>
<g mask="url(#mask0_272_156)">
<path d="M12 22L5 15L6.4 13.575L11 18.175V11H13V18.175L17.6 13.6L19 15L12 22ZM11 9V6H13V9H11ZM11 4V2H13V4H11Z" fill="#42404F"/>
</g>
</svg>
